X:1480
T:Maid of Athlone, The
N:"collected from McFadden"
B:"O'Neill's Dance Music of Ireland, 1480"
T: an aindear ua a.t-luain.
Z:transcribed by John B. Walsh, 8/22/96
M:C|
L:1/8
K:D
A3 G FAdB|AGFD EA, ((3A,B,A,)|ABAG FAdB|ABda fd d2 Hx:|
Tf2 df Te2 df|afeg fBBg|Tf2 df Te2 dA|((3Bcd) AG FDDg|
Tf2 df Te2 df|afdf fB TB2|AFAB deba|((3fga) eg fddB !D.C.!||


